packages/swarm-icons/src/icons/line/Announce.svg

<svg xmlns="http://www.w3.org/2000/svg" width="24" height="24" viewBox="0 0 24 24">
  <path fill="#757575" d="M15.5,11.5 L15.5,9.5 L13.5,9.5 C13.2238576,9.5 13,9.27614237 13,9 C13,8.72385763 13.2238576,8.5 13.5,8.5 L15.5,8.5 L15.5,6.5 L13.5,6.5 C13.2238576,6.5 13,6.27614237 13,6 C13,5.72385763 13.2238576,5.5 13.5,5.5 L15.3550607,5.5 C14.9247861,4.05425553 13.5855103,3 12,3 C10.0670034,3 8.5,4.56700338 8.5,6.5 L8.5,11.5 C8.5,13.4329966 10.0670034,15 12,15 C13.5855103,15 14.9247861,13.9457445 15.3550607,12.5 L13.5,12.5 C13.2238576,12.5 13,12.2761424 13,12 C13,11.7238576 13.2238576,11.5 13.5,11.5 L15.5,11.5 Z M16.4397541,12.238143 C16.087593,14.3722589 14.2338861,16 12,16 C9.51471863,16 7.5,13.9852814 7.5,11.5 L7.5,6.5 C7.5,4.01471863 9.51471863,2 12,2 C14.2338861,2 16.087593,3.62774115 16.4397541,5.76185702 C16.4781773,5.83265957 16.5,5.9137813 16.5,6 C16.5,6.04279115 16.4946246,6.0843268 16.4845121,6.12396852 C16.4947693,6.24795446 16.5,6.37336638 16.5,6.5 L16.5,11.5 C16.5,11.6266336 16.4947693,11.7520455 16.4845121,11.8760315 C16.4946246,11.9156732 16.5,11.9572089 16.5,12 C16.5,12.0862187 16.4781773,12.1673404 16.4397541,12.238143 Z M11.5,21.0403241 L11.5,17.9824935 C8.15155083,17.7471427 5.5,15.1677453 5.5,12 C5.5,11.7238576 5.72385763,11.5 6,11.5 C6.27614237,11.5 6.5,11.7238576 6.5,12 C6.5,14.7512428 8.95318972,17 12,17 C15.0468103,17 17.5,14.7512428 17.5,12 C17.5,11.7238576 17.7238576,11.5 18,11.5 C18.2761424,11.5 18.5,11.7238576 18.5,12 C18.5,15.1677453 15.8484492,17.7471427 12.5,17.9824935 L12.5,21.0403241 L16,21.0403241 C16.2761424,21.0403241 16.5,21.2641818 16.5,21.5403241 C16.5,21.8164665 16.2761424,22.0403241 16,22.0403241 L8,22.0403241 C7.72385763,22.0403241 7.5,21.8164665 7.5,21.5403241 C7.5,21.2641818 7.72385763,21.0403241 8,21.0403241 L11.5,21.0403241 Z"/>
</svg>

<svg xmlns="http://www.w3.org/2000/svg" width="24" height="24"><path fill="#757575" d="M15.5 11.5v-2h-2a.5.5 0 110-1h2v-2h-2a.5.5 0 110-1h1.855a3.502 3.502 0 00-6.855 1v5a3.5 3.5 0 006.855 1H13.5a.5.5 0 110-1h2zm.94.738A4.501 4.501 0 017.5 11.5v-5a4.5 4.5 0 018.94-.738.498.498 0 01.045.362c.01.124.015.25.015.376v5c0 .127-.005.252-.015.376a.501.501 0 01-.045.362zM11.5 21.04v-3.058c-3.348-.235-6-2.814-6-5.982a.5.5 0 111 0c0 2.751 2.453 5 5.5 5s5.5-2.249 5.5-5a.5.5 0 111 0c0 3.168-2.652 5.747-6 5.982v3.058H16a.5.5 0 010 1H8a.5.5 0 110-1h3.5z"/></svg>
